logos/flagsmith.svg

<svg fill="none" height="72" viewBox="0 0 72 72" width="72" xmlns="http://www.w3.org/2000/svg"><path d="m8.4375 0h55.125c4.6602 0 8.4375 3.77734 8.4375 8.4375v55.125c0 4.6602-3.7773 8.4375-8.4375 8.4375h-55.125c-4.66016 0-8.4375-3.7773-8.4375-8.4375v-55.125c0-4.66016 3.77734-8.4375 8.4375-8.4375z" fill="#000"/><g fill="#fff"><path d="m9.47266 30.7773c-2.6836-9.0117-1.34375-17.6328 10.04684-20.89449 2.8907-.82812 7.293-1.42578 10.2813-1.47266 10.914-.17187 33.5078-.03515 34.0234.00391.2852.02344-.8086 4.35154-2.7226 7.21484-3.1289 4.6797-7.586 6.8789-13.2188 7.1641-6.9375.3515-13.8945.4179-20.8398.4179-6.8789.0039-12.7813 2.0782-17.31644 7.4805-.04687.0586-.16797.0586-.2539.0859z"/><path d="m43.7812 28.6602-18.3984-.0313c-9.543.082-17.25389 7.8945-17.25389 17.5234 0 9.625 7.71089 17.4375 17.25389 17.5196v-22.6094h18.3984z"/></g></svg>

<svg width="72" height="72" viewBox="0 0 72 72" fill="none" xmlns="http://www.w3.org/2000/svg">
<path d="M8.4375 0H63.5625C68.2227 0 72 3.77734 72 8.4375V63.5625C72 68.2227 68.2227 72 63.5625 72H8.4375C3.77734 72 0 68.2227 0 63.5625V8.4375C0 3.77734 3.77734 0 8.4375 0Z" fill="black"/>
<path d="M9.47266 30.7773C6.78906 21.7656 8.12891 13.1445 19.5195 9.88281C22.4102 9.05469 26.8125 8.45703 29.8008 8.41015C40.7148 8.23828 63.3086 8.375 63.8242 8.41406C64.1094 8.4375 63.0156 12.7656 61.1016 15.6289C57.9727 20.3086 53.5156 22.5078 47.8828 22.793C40.9453 23.1445 33.9883 23.2109 27.043 23.2109C20.1641 23.2148 14.2617 25.2891 9.72656 30.6914C9.67969 30.75 9.55859 30.75 9.47266 30.7773V30.7773Z" fill="white"/>
<path d="M43.7812 28.6602L25.3828 28.6289C15.8398 28.7109 8.12891 36.5234 8.12891 46.1523C8.12891 55.7773 15.8398 63.5898 25.3828 63.6719V41.0625H43.7812V28.6602Z" fill="white"/>
</svg>
